X:1
T:Remembered No More
T:Remembered No More
T:Frank Marion Davis
T:Frank Marion Davis, 1895
T:Public Domain Courtesy of the Cyber Hymnal™
T:Public Domain Courtesy of the Cyber Hymnal™
C:Frank Marion Davis
Z:Public Domain
Z:Courtesy of the Cyber Hymnal™
%%score 1 ( 2 3 )
L:1/8
Q:1/2=90
M:4/2
K:Ab
V:1 treble 
V:2 bass 
V:3 bass 
V:1
 [A,C]3 [B,D] | [CE]4 [DF]3 [CE] [DG]4 [DF]3 [DE] | [Fd]8 [Ec]4 [Ec]4 | %3
w: 1.~Tho’ your|sins may be red and like|scar- let, Out-|
w: 2.~Hear the|voice that in love now en-|treats you To|
w: 3.~At the|door of your heart Christ is|knock- ing, He|
 [=Dc]4 [DB]3 [DF] [DF]4 [_DG]3 [DF] | [CE]12 [A,C]3 [B,D] | [CE]4 [DF]3 [CE] | [DG]4 [DF]3 [DE] | %7
w: num- bering the sands on the|shore, Yet thro’|Christ and His|in- fi- nite|
w: en- ter the wide o- pen|door, That will|lead to the|king- dom of|
w: oft- en has knocked there be-|fore; Let Him|in, He’ll for-|give your trans-|
 [Fd]8 [Ec]4 [Ec]4 | [=Dc]4 [DB]3 [DF] [_DG]4 [DB]3 [DB] | [CA]12 ||"^Refrain" [Fc]4 | %11
w: mer- cy They’re|cleansed and re- mem- bered no|more.||
w: Hea- ven Where|sins are re- mem- bered no|more.|Re-|
w: gres- sions, And|they’ll be re- mem- bered no|more.||
 [=Ec]4 [EG]3 [EB] !fermata![FA]4 [FA]4 | %12
w: |
w: mem- bered no more, Re-|
w: |
"^rit." [FA]4 [FB]3 [F=B] ([=Ec]2 !fermata![_Ed]2) [A,C]3 [CE] | [CE]4 [DF]3 [CE] | %14
w: ||
w: mem- bered no more; * Yet thro’|Christ and His|
w: ||
 [DG]4 [DF]3 [DE] | [Fd]8 [Ec]4 [Ec]4 | [=Dc]4 [DB]3 [DF] [_DG]4 [DB]3 [DB] | [CA]12 |] %18
w: ||||
w: in- fi- nite|mer- cy, Your|sins are re- mem- bered no|more.|
w: ||||
V:2
 [A,,E,]3 [A,,E,] | [A,,A,]4 [A,,A,]3 [A,,A,] E,4 [E,B,]3 [E,G,] | [A,,A,]8 [A,,A,]4 [A,,A,]4 | %3
 [B,,F,]4 [B,,F,]3 [B,,B,] [B,,B,]4 [E,B,]3 [E,G,] | [A,,A,]12 [A,,E,]3 [A,,E,] | %5
 [A,,A,]4 [A,,A,]3 [A,,A,] | E,4 [E,B,]3 [E,G,] | [A,,A,]8 [A,,A,]4 [A,,A,]4 | %8
 [B,,F,]4 [B,,F,]3 [B,,B,] E,4 [E,G,]3 [E,G,] | [A,,A,]12 || [F,A,]4 | %11
 [C,G,]4 [C,C]3 [C,C] !fermata![F,C]4 [F,C]4 | %12
 [F,A,]4 [D,F,]3 [D,F,] G,4 !fermata![A,,A,]3 [A,,E,] | [A,,A,]4 [A,,A,]3 [A,,A,] | %14
 E,4 [E,B,]3 [E,G,] | [A,,A,]8 [A,,A,]4 [A,,A,]4 | [B,,F,]4 [B,,F,]3 [B,,B,] E,4 [E,G,]3 [E,G,] | %17
 [A,,A,]12 |] %18
V:3
 x4 | x8 E,4 x4 | x16 | x16 | x16 | x8 | E,4 x4 | x16 | x8 E,4 x4 | x12 || x4 | x16 | %12
 x8 (C,2 B,,2) x4 | x8 | E,4 x4 | x16 | x8 E,4 x4 | x12 |] %18

